!!!!SEGMENT: pl-wtm--r-1339_stefani-jozef--taniec-tyrolski-z-baletu-sen-dansomana.krn
!!!cenid: 18xx:2402
!!!COM: Stefani, Józef
!!!COM-rismid: pe30024097
!!!CDT: 1800/04/16-1876/03/19
!!!CNT: Polish
!!!OTL: Taniec tyrolski z baletu Sen Dansomana
!!!PDT:
!!!AGN: Secular
!!!SMS-siglum: PL-Wtm
!!!SMS-shelfmark: R 1339
!!!SMS-shelfwork: W
!!!SMS-variant:
!!!SMS-altvar:
!!!NIFC-rismid: 1001119025
!!!URL-scan: http://repozytorium.nifc.pl/skany/pl-wtm-nut--r1339
!!!ONB-nifc:
!!!OMD: Allegro moderato.
**kern	**kern	**dynam
*part1	*part1	*part1
*staff2	*staff1	*
*Iempty	*Ipiano	*
*	*I"Piano.	*
*clefF4	*clefG2	*
*k[f#]	*k[f#]	*
*G:	*G:	*
*M3/4	*M3/4	*
!	!LO:TX:t=P:problem:all\middle or right:global	!
8r	(8b\L	p
4r	8cc\	.
.	8cc#X\J	.
=1	=1	=1
4BB/	4.dd\)	.
4B\ 4G\ 4D\	.	.
.	(8ff#\L	.
4B\ 4G\ 4D\	8gg\	.
.	8aa\J	.
=2	=2	=2
*rep	*	*
4BB/	4.bb\)	.
4B\ 4G\ 4D\	.	.
.	(8b\L	.
4B\ 4G\ 4D\	8cc\	.
.	8cc#X\J	.
*Xrep	*	*
=3	=3	=3
*rep	*	*
4BB/	4.dd\)	.
4B\ 4G\ 4D\	.	.
.	(8ff#\L	.
4B\ 4G\ 4D\	8gg\	.
.	8aa\J	.
*Xrep	*	*
!!LO:LB;g=original
=4	=4	=4
*	*2\right	*
!	!LO:TX:t=P:problem:2\right:global	!
!	!LO:TX:t=P:problem:brak zakończenia łuku (początek pięciolinii)	!
4GG/	2bb\)	.
4B\ 4G\ 4D\	.	.
4B\ 4G\ 4D\	(8aa#X\L	<
.	8bb\J)	.
=5	=5	=5
*^	*	*
*2\right	*	*	*
!LO:TX:t=P:problem:2\right:global	!	!	!LO:DY:rj
4r	2.D\	(4.ddd\	[ f
4c/ 4F#/	.	.	.
.	.	8ccc#X\L	.
4c/ 4F#/	.	8cccn\	.
.	.	8bb\J	.
=6	=6	=6	=6
*rep	*rep	*	*
4r	2.D\	2aa\)	.
4c/ 4F#/	.	.	.
4c/ 4F#/	.	(4aa#X^<\	.
*Xrep	*Xrep	*	*
*v	*v	*	*
=7	=7	=7
4GG/	4.bb\	.
4B\ 4G\ 4D\	.	.
.	8ff#\L	.
4B\ 4G\ 4D\	8gg\	.
.	8ee\J)	.
=8	=8	=8
*rep	*	*
4GG/	(4.dd\	.
4B\ 4G\ 4D\	.	.
.	8b\L	p
4B\ 4G\ 4D\	8cc\	.
.	8cc#X\J	.
*Xrep	*	*
!!LO:LB:g=original
=9	=9	=9
!	!LO:TX:t=P:problem:brak zakończenia łuku (początek pięciolinii)	!
4GG/	4.dd\)	.
4B\ 4G\ 4D\	.	.
.	(8ff#\L	.
4B\ 4G\ 4D\	8gg\	.
.	8aa\J	.
=10	=10	=10
*rep	*	*
4GG/	4.bb\)	.
4B\ 4G\ 4D\	.	.
.	(8b\L	.
4B\ 4G\ 4D\	8cc\	.
.	8cc#X\J	.
*Xrep	*	*
=11	=11	=11
*rep	*	*
4GG/	4.dd\)	.
4B\ 4G\ 4D\	.	.
.	(8ff#\L	.
4B\ 4G\ 4D\	8gg\	.
.	8aa\J	.
*Xrep	*	*
=12	=12	=12
*rep	*	*
4GG/	4.bb\)	<
4B\ 4G\ 4D\	.	.
.	(8aa#X\L	.
4B\ 4G\ 4D\	8bb\	.
.	8ccc#X\J	.
*Xrep	*	*
=13	=13	=13
4FF#/	2ddd\	[ >
4d\ 4B\ 4F#\	.	.
4d\ 4B\ 4F#\	8ccc#X\L	.
.	8bb\J)	]
!!LO:LB:g=original
=14	=14	=14
4FF#/	2fff#\	.
4e\ 4c\ 4F#\	.	.
4e\ 4c\ 4F#\	(4aa#X\	.
=15	=15	=15
4d\ 4B\	4.bb\)	.
4d\ 4B\	.	.
.	(8ccc#X\L	.
4e\ 4A#X\ 4F#\	8ddd\	.
.	8ccc#\J	.
=16	=16	=16
2d\ 2B\	2bb\)	.
4r	(8aa\L	<
.	8bb\J)	[[
=17	=17	=17
!	!	!LO:DY:rj
4D/ 4DD/	(8cccn\L	f
.	8bb\)	p
4c\ 4A\ 4D\	8aa'\	.
.	8gg'\	.
4c\ 4A\ 4D\	8ff#'\	.
.	8ee'\J	.
=18	=18	=18
4c\ 4A\ 4D\	8dd'/L	.
.	8cc'/	.
4c\ 4A\ 4D\	8b'/	.
.	8a'/	.
4c\ 4A\ 4D\	8g'/	.
.	8f#'/J	.
!!LO:LB:g=original
=19	=19	=19
4GG/	(8g/L	.
.	8a/)	.
4B\ 4G\ 4D\	8b'/	.
.	8cc'/J	.
4B\ 4G\ 4D\	4dd'\	.
=20	=20	=20
*rep	*	*
4GG/	(2ee^<\	.
4B\ 4G\ 4D\	.	.
4B\ 4G\ 4D\	4dd\)	.
*Xrep	*	*
=21	=21	=21
*^	*	*
4r	2.BB\	(8ccc\L	.
.	.	8bb\)	.
4A/ 4D#X/	.	8aa'\	.
.	.	8gg'\	.
4A/ 4D#/	.	8ff#'\	.
.	.	8ee'\J	.
=22	=22	=22	=22
*rep	*rep	*	*
4r	2.BB\	(8dd#X/L	.
.	.	8ccn/)	.
4A/ 4D#X/	.	8b'/	.
.	.	8a'/	.
4A/ 4D#/	.	8g'/	.
.	.	8f#'/J	.
*Xrep	*Xrep	*	*
*v	*v	*	*
=23	=23	=23
(>8qEE/	.	.
4E\)	(8e/L	.
.	8f#/)	.
4B\ 4G\ 4E\	8g'/	.
.	8a'/J	.
4B\ 4G\ 4E\	4b/	.
!!LO:LB:g=original
=24	=24	=24
4EE/	(2cc^<\	.
4B\ 4G\ 4E\	.	.
4B\ 4G\ 4E\	4b\)	.
=25	=25	=25
*^	*	*
4r	2.C\	(8a\L	.
.	.	8b\)	.
4A/ 4E/	.	8cc'\	.
.	.	8dd'\J	.
4A/ 4E/	.	4ee'\	.
=26	=26	=26	=26
*rep	*rep	*	*
4r	2.C\	(2ff#^<\	.
4A/ 4E/	.	.	.
4A/ 4E/	.	4ee\)	.
*Xrep	*Xrep	*	*
=27	=27	=27	=27
4r	2.D\	(8g/L	.
.	.	8a/)	.
4B/ 4G/	.	8b'/	.
.	.	8cc'/J	.
4B/ 4G/	.	4dd'\	.
=28	=28	=28	=28
4r	2.D\	(2ee^<\	.
4B/ 4G/	.	.	.
4B/ 4G/	.	4dd\)	.
!!LO:PB:g=original
=29	=29	=29	=29
4r	2.D\	(8f#/L	.
.	.	8g/)	.
4c/ 4A/ 4F#/	.	8a'/	.
.	.	8b'/J	.
4c/ 4A/ 4F#/	.	4cc'\	.
=30	=30	=30	=30
*rep	*rep	*	*
4r	2.D\	(2ee\	.
4c/ 4A/ 4F#/	.	.	.
4c/ 4A/ 4F#/	.	4dd\)	.
*Xrep	*Xrep	*	*
*v	*v	*	*
=31	=31	=31
4B\ 4G\	4g/	.
4B\ 4G\	(8f#/L	.
.	8g/)	.
4B\ 4G\	8b'/	.
.	8dd'/J	.
=32	=32	=32
4GG/	(8gg\L	.
.	8ff#\	.
4d\ 4B\ 4G\	8gg\	.
.	8dd\	.
4d\ 4B\ 4G\	8b\	.
.	8dd\J)	.
=33	=33	=33
*^	*	*
4r	2.C\	(8a\L	.
.	.	8b\)	.
4c/ 4A/ 4E/	.	8cc'\	.
.	.	8dd'\	.
4c/ 4A/ 4E/	.	8dd#X'\	.
.	.	8ee'\J	.
!!LO:LB:g=original
=34	=34	=34	=34
4r	2.C\	(16ff#\KL	.
!	!	!LO:TX:t=P:problem:16ee poprawione na 8ee	!
.	.	8ee\J)	.
.	.	16r	.
4c/ 4A/ 4E/	.	(16dd#X\KL	.
!	!	!LO:TX:t=P:problem:16ee poprawione na 8ee	!
.	.	8ee\J)	.
.	.	16r	.
4c/ 4A/ 4E/	.	(16ff#\KL	.
!	!	!LO:TX:t=P:problem:16ee poprawione na 8ee	!
.	.	8ee\J)	.
.	.	16r	.
=35	=35	=35	=35
4r	2.D\	(8g/L	.
.	.	8a/)	.
4B/ 4G/	.	8b'/	.
.	.	8cc'/	.
4B/ 4G/	.	8cc#X'/	.
.	.	8dd'/J	.
=36	=36	=36	=36
*rep	*rep	*	*
4r	2.D\	(16ee\KL	.
.	.	8dd\J)	.
.	.	16r	.
4B/ 4G/	.	(16cc#X\KL	.
.	.	8dd\J)	.
.	.	16r	.
4B/ 4G/	.	(16ee\KL	.
.	.	8dd\J)	.
.	.	16r	.
*Xrep	*Xrep	*	*
=37	=37	=37	=37
4r	2.D\	(8f#/L	.
.	.	8g/)	.
4c/ 4F#/	.	8a'/	.
.	.	8b'/	.
4c/ 4F#/	.	8cc'/	.
.	.	8cc#X'/J	.
!!LO:LB:g=original
=38	=38	=38	=38
4r	2.D\	(8ee\L	.
.	.	8dd\)	.
4c/ 4A/	.	8cc#X'\	.
.	.	8dd'\	.
4c/ 4A/	.	8ee'\	.
.	.	8ff#'\J	.
*v	*v	*	*
=39	=39	=39
4B\ 4G\	4gg\	.
4r	8r	.
.	8gg\ 8g\	.
4r	4gg\ 4g\	.
=40	=40	=40
2.r	4gg\ 4g\	.
.	4gg\ 4g\	.
.	4gg\ 4g\	.
=41||	=41||	=41||
*k[b-e-a-]	*k[b-e-a-]	*
!	!LO:TX:b:i:t=dolce	!
(8EE-/L	(2gg\ 2b-\	.
8GG/)	.	.
8BB-'/	.	.
8E-'/J	.	.
4G'\	4ee-\ 4b-\)	.
=42	=42	=42
(8AA-/L	(2aa-\ 2cc\	.
8C/)	.	.
8En'/	.	.
8F'/J	.	.
4A-'\	4ff\ 4a-\)	.
!!LO:LB:g=original
=43	=43	=43
(8BB-\L	4.dd\ 4.f'\	.
8D\)	.	.
8F'\	.	.
8A-'\J	8ee-\ 8g'\	.
4B-'\	4ff\ 4a-'\	.
=44	=44	=44
(8EE-/L	(2gg\ 2b-\	.
8GG/)	.	.
8BB-'/	.	.
8E-'/J	.	.
4G'\	4ee-\ 4b-\)	.
=45	=45	=45
*rep	*	*
(8EE-/L	(8gg\L 8b-\	.
8GG/)	8aa-\ 8cc\	.
8BB-'/	8gg\ 8b-\	.
8E-'/J	8ff\J 8a-\)	.
4G'\	4ee-\ 4g^<\	.
*Xrep	*	*
=46	=46	=46
(8AA-/L	(8aa-\L 8cc\	.
8C/)	8bb-\ 8dd\	.
8En'/	8aa-\ 8cc\	.
8F'/J	8gg\J 8b-\)	.
4A-'\	4ff\ 4a-^<\	.
=47	=47	=47
!LO:TX:t=P:problem:mixed beam	!	!
(8BB-\L	4.dd\ 4.f'\	.
8D\)	.	.
8F\	.	.
8A-\	8ee-\ 8g'\	.
8B-\	4ff\ 4a-'\	.
8BB-/J	.	.
!!LO:LB:g=original
=48	=48	=48
2E-\	2ee-\ 2g\	.
4r	4b-\	<[
=49	=49	=49
!	!	!LO:DY:rj
4BB-/	(8bb-\L	f
.	8aan\	.
4B-\ 4A-\ 4F\	8aa-X\	.
.	8gg\	.
4B-\ 4A-\ 4F\	8gg-X\	.
.	8ff\J	.
=50	=50	=50
*rep	*	*
4BB-/	8een\L	.
.	8ee-X\	.
4B-\ 4A-\ 4F\	8dd\	.
.	8dd-X\	.
4B-\ 4A-\ 4F\	8cc\	.
.	8cc-X\J	.
*Xrep	*	*
=51	=51	=51
*^	*	*
4r	2.E-\	4b-\)	.
4B-/ 4G/	.	(8g\L	.
.	.	8b-\)	.
4B-/ 4G/	.	8ee-'\	.
.	.	8gg'\J	.
=52	=52	=52	=52
*rep	*rep	*	*
4r	2.E-\	2ee-\	.
4B-/ 4G/	.	.	.
4B-/ 4G/	.	4b-\	.
*Xrep	*Xrep	*	*
*v	*v	*	*
!!LO:LB:g=original
=53	=53	=53
4BB-/	(8ccc\L	.
.	8ccc-X\	.
4B-\ 4A-\ 4F\	8bb-\	.
.	8aan\	.
4B-\ 4A-\ 4F\	8aa-X\	.
.	8gg\J	.
=54	=54	=54
*rep	*	*
4BB-/	8gg-X\L	.
.	8ff\	.
4B-\ 4A-\ 4F\	8een\	.
.	8ee-X\	.
4B-\ 4A-\ 4F\	8dd\	.
.	8cc\J)	.
*Xrep	*	*
=55	=55	=55
*^	*	*
4r	2.E-\	4b-\	.
4B-/ 4G/	.	(8g\L	.
.	.	8b-\)	.
4B-/ 4G/	.	8ee-'\	.
.	.	8gg'\J	.
*v	*v	*	*
=56	=56	=56
2B-\ 2F\ 2D\ 2BB-\	2ff\	.
4r	4b-\	.
!!LO:PB:g=original
=57	=57	=57
!	!LO:TX:b:i:t=dolce	!
(8EE-/L	(2gg\ 2b-\	.
8GG/)	.	.
8BB-'/	.	.
8E-'/J	.	.
4G'\	4ee-\ 4b-\)	.
=58	=58	=58
(8AA-/L	(2aa-\ 2cc\	.
8C/)	.	.
8En'/	.	.
8F'/J	.	.
4A-'\	4ff\ 4a-\)	.
=59	=59	=59
(8BB-\L	4.dd\ 4.f'\	.
8D\)	.	.
8F'\	.	.
8A-'\J	8ee-\ 8g'\	.
4B-'\	4ff\ 4a-'\	.
=60	=60	=60
(8EE-/L	(2gg\ 2b-\	.
8GG/)	.	.
8BB-'/	.	.
8E-'/J	.	.
4G'\	4ee-\ 4b-\)	.
=61	=61	=61
*rep	*	*
(8EE-/L	(8gg\L 8b-\	.
8GG/)	8aa-\ 8cc\	.
8BB-'/	8gg\ 8b-\	.
8E-'/J	8ff\J 8a-\	.
4G'\	4ee-\ 4g\)	.
*Xrep	*	*
!!LO:LB:g=original
=62	=62	=62
(8AA-\L	(8aa-\L 8cc\	.
8C\)	8bb-\ 8dd\	.
8En'\	8aa-\ 8cc\	.
!LO:TX:t=P:problem:8A- poprawione na 8F	!	!
8F'\J	8gg\J 8b-\	.
4A-'\	4ff\ 4a-\)	.
=63	=63	=63
(8BB-\L	4.dd\ 4.f\	.
8D\)	.	.
8F'\	.	.
8A-'\J	8ee-\ 8g\	.
!LO:TX:t=P:problem:mixed beam	!	!
8B-'\L	4ff\ 4a-\	.
8BB-'/J	.	.
=64	=64	=64
2E-\	2ee-\ 2g\	.
4r	4g/	p
=65	=65	=65
*^	*	*
!LO:TX:t=P:problem:poprawione dźwięki	!	!	!
4r	2.E-\	(4.g/	.
4c#X/ 4G/	.	.	.
.	.	8b-/L	.
4c#/ 4G/	.	8an/	.
.	.	8g/J)	.
=66	=66	=66	=66
4r	2.D\	4.f#X/	.
4d/ 4An/ 4F#X/	.	.	.
.	.	8an/	.
4d/ 4A/ 4F#/	.	4dd\	.
!!LO:LB:g=original
=67	=67	=67	=67
!	!	!	!LO:DY:rj
4r	2.D\	(4.een\	f
4c#X/ 4An/ 4G/	.	.	.
.	.	8gg\L	.
4c#/ 4A/ 4G/	.	8ff#X\	.
.	.	8ee\J)	.
=68	=68	=68	=68
4r	2.D\	4.ff#X\	.
4d/ 4An/ 4F#X/	.	.	.
.	.	8dd\	.
4d/ 4A/ 4F#/	.	4an/	.
=69	=69	=69	=69
!	!	!	!LO:DY:rj
4r	2.BB-\	(4.g/	p
4c#X/ 4G/	.	.	.
.	.	8b-/L	.
4c#/ 4G/	.	8an/	.
.	.	8g/J)	.
=70	=70	=70	=70
4r	2.D\	4.f#X/	.
4d/ 4An/ 4F#X/	.	.	.
.	.	8an/	.
4d/ 4A/ 4F#/	.	4dd\	.
!!LO:LB:g=original
=71	=71	=71	=71
!	!	!	!LO:DY:rj
4r	2.D\	(4.een\	f
4c#X/ 4An/ 4G/	.	.	.
.	.	8gg\L	.
4c#/ 4A/ 4G/	.	8ff#X\	.
.	.	8ee\J)	.
*v	*v	*	*
=72	=72	=72
4.d\ 4.An\ 4.F#X\ 4.D\	(4dd\	.
.	8ddd\)	.
8r	8r	.
4F#\ 4D\	4r	.
=73	=73	=73
*^	*	*
4.G/	4.En\	(4dd\	.
.	.	8ddd\)	.
8r	8ryy	8r	.
4G/	4E\	4r	.
=74	=74	=74	=74
4.An/	4.F#X\	(4dd\	.
.	.	8ddd\)	.
8r	8ryy	8r	.
4r	4ryy	4r	.
*v	*v	*	*
!!LO:LB:g=original
=75||	=75||	=75||
*k[f#]	*k[f#]	*
2.r	4r	.
.	8r	.
.	(8b\L	p
.	8cc\	.
.	8cc#X\J	.
=76	=76	=76
4BB/	4.dd\)	.
4B\ 4G\ 4D\	.	.
.	(8ff#\L	.
4B\ 4G\ 4D\	8gg\	.
.	8aa\J	.
=77	=77	=77
*rep	*	*
4BB/	4.bb\)	.
4B\ 4G\ 4D\	.	.
.	(8b\L	.
4B\ 4G\ 4D\	8cc\	.
.	8cc#X\J	.
*Xrep	*	*
=78	=78	=78
*rep	*	*
4BB/	4.dd\)	.
4B\ 4G\ 4D\	.	.
.	(8ff#\L	.
4B\ 4G\ 4D\	8gg\	.
.	8aa\J	.
*Xrep	*	*
=79	=79	=79
*rep	*	*
4GG/	2bb\)	.
4B\ 4G\ 4D\	.	.
4B\ 4G\ 4D\	(8aa#X\L	<
.	8bb\J)	[[
*Xrep	*	*
!!LO:LB:g=original
=80	=80	=80
*^	*	*
!	!	!	!LO:DY:rj
4r	2.D\	(4.ddd\	f
4c/ 4F#/	.	.	.
.	.	8ccc#X\L	.
4c/ 4F#/	.	8cccn\	.
.	.	8bb\J	.
=81	=81rep	=81	=81
*rep	*rep	*	*
4r	2.D\	2aa\)	.
4c/ 4F#/	.	.	.
4c/ 4F#/	.	(4aa#X^<\	.
*Xrep	*Xrep	*	*
*v	*v	*	*
=82	=82	=82
4GG/	4.bb\	.
4B\ 4G\ 4D\	.	.
.	8ff#\L	.
4B\ 4G\ 4D\	8gg\	.
.	8ee\J)	.
=83	=83	=83
*rep	*	*
4GG/	(4.dd\	.
4B\ 4G\ 4D\	.	.
!	!	!LO:DY:rj
.	8b\L	p
4B\ 4G\ 4D\	8cc\	.
.	8cc#X\J)	.
*Xrep	*	*
=84	=84	=84
*rep	*	*
4GG/	4.dd\	.
4B\ 4G\ 4D\	.	.
.	(8ff#\L	.
4B\ 4G\ 4D\	8gg\	.
.	8aa\J	.
*Xrep	*	*
!!LO:PB:g=original
=85	=85	=85
!	!LO:TX:t=P:problem:brak zakończenia łuku (początek pięciolinii)	!
4GG/	4.bb\)	.
4B\ 4G\ 4D\	.	.
.	(8b\L	.
4B\ 4G\ 4D\	8cc\	.
.	8cc#X\J	.
=86	=86	=86
*rep	*	*
4GG/	4.dd\)	.
4B\ 4G\ 4D\	.	.
.	(8ff#\L	.
4B\ 4G\ 4D\	8gg\	.
.	8aa\J	.
*Xrep	*	*
=87	=87	=87
*rep	*	*
4GG/	4.bb\)	<
4B\ 4G\ 4D\	.	.
.	(8aa#X\L	.
4B\ 4G\ 4D\	8bb\	.
.	8ccc#X\J	[[
*Xrep	*	*
=88	=88	=88
4FF#/	2ddd\	>
4d\ 4B\ 4F#\	.	.
4d\ 4B\ 4F#\	8ccc#X\L	.
.	8bb\J)	]
=89	=89	=89
4FF#/	2fff#\	.
4e\ 4c\ 4F#\	.	.
4e\ 4c\ 4F#\	(4aa#X\	.
=90	=90	=90
4d\ 4B\	4.bb\	.
4d\ 4B\	.	.
.	8ccc#X\	.
4e\ 4A#X\ 4F#\	8ddd\L	.
.	8ccc#\J	.
!!LO:LB:g=original
=91	=91	=91
!	!LO:TX:t=P:problem:brak zakończenia łuku (początek pięciolinii)	!
2d\ 2B\	2bb\)	.
4r	(8aa\L	.
.	8bb\J)	.
=92	=92	=92
!	!	!LO:DY:rj
4D/ 4DD/	(8cccn\L	f
.	8bb\)	p
4c\ 4A\ 4D\	8aa'\	.
.	8gg'\	.
4c\ 4A\ 4D\	8ff#'\	.
.	8ee'\J	.
=93	=93	=93
4c\ 4A\ 4D\	8dd'/L	.
.	8cc'/	.
4c\ 4A\ 4D\	8b'/	.
.	8a'/	.
4c\ 4A\ 4D\	8g'/	.
.	8f#'/J	.
=94	=94	=94
4GG/	(8g/L	.
.	8a/)	.
4B\ 4G\ 4D\	8b'/	.
.	8cc'/J	.
4B\ 4G\ 4D\	4dd'\	.
=95	=95	=95
*rep	*	*
4GG/	(2ee^<\	.
4B\ 4G\ 4D\	.	.
4B\ 4G\ 4D\	4dd\)	.
*Xrep	*	*
=96	=96	=96
*^	*	*
4r	2.BB\	(8ccc\L	.
.	.	8bb\)	.
4A/ 4D#X/	.	8aa'\	.
.	.	8gg'\	.
4A/ 4D#/	.	8ff#'\	.
.	.	8ee'\J	.
!!LO:LB:g=original
=97	=97	=97	=97
4r	2.BB\	8dd#X/L	.
.	.	8ccn/	.
4A/ 4D#X/	.	8b/	.
.	.	8a/	.
4A/ 4D#/	.	8g/	.
.	.	8f#/J	.
*v	*v	*	*
=98	=98	=98
(8qEE/	.	.
4E\)	(8e/L	.
.	8f#/)	.
4B\ 4G\ 4E\	8g'/	.
.	8a'/J	.
4B\ 4G\ 4E\	4b/	.
=99	=99	=99
4EE/	(2cc^<\	.
4B\ 4G\ 4E\	.	.
4B\ 4G\ 4E\	4b\)	.
=100	=100	=100
*^	*	*
4r	2.C\	(8a\L	.
.	.	8b\)	.
4A/ 4E/	.	8cc'\	.
.	.	8dd'\J	.
4A/ 4E/	.	4ee\	.
=101	=101	=101	=101
*rep	*rep	*	*
4r	2.C\	(2ff#^<\	.
4A/ 4E/	.	.	.
4A/ 4E/	.	4ee\)	.
*Xrep	*Xrep	*	*
=102	=102	=102	=102
4r	2.D\	(8g/L	.
.	.	8a/)	.
4B/ 4G/	.	8b'/	.
.	.	8cc'/J	.
4B/ 4G/	.	4dd'\	.
!!LO:LB:g=original
=103	=103	=103	=103
4r	2.D\	(2ee^<\	.
4B/ 4G/	.	.	.
4B/ 4G/	.	4dd\)	.
=104	=104	=104	=104
4r	2.D\	(8f#/L	.
.	.	8g/)	.
4c/ 4A/ 4F#/	.	8a'/	.
.	.	8b'/J	.
4c/ 4A/ 4F#/	.	4cc'\	.
=105	=105	=105	=105
*rep	*rep	*	*
4r	2.D\	(2ee^<\	.
4c/ 4A/ 4F#/	.	.	.
4c/ 4A/ 4F#/	.	4dd\)	.
*Xrep	*Xrep	*	*
*v	*v	*	*
=106	=106	=106
4B\ 4G\	4g/	.
4B\ 4G\	(8f#/L	.
.	8g/)	.
4B\ 4G\	8b'/	.
.	8dd'/J	.
=107	=107	=107
4GG/	(8gg\L	.
.	8ff#\	.
4d\ 4B\ 4G\	8gg\	.
.	8dd\	.
4d\ 4B\ 4G\	8b\	.
.	8dd\J)	.
=108	=108	=108
*^	*	*
4r	2.C\	(8a\L	.
.	.	8b\)	.
4c/ 4A/ 4E/	.	8cc'\	.
.	.	8dd'\	.
4c/ 4A/ 4E/	.	8dd#X'\	.
.	.	8ee'\J	.
!!LO:LB:g=original
=109	=109	=109	=109
4r	2.C\	(16ff#\KL	.
.	.	8ee\J)	.
.	.	16r	.
4c/ 4A/ 4E/	.	(16dd#X\KL	.
.	.	8ee\J)	.
.	.	16r	.
4c/ 4A/ 4E/	.	(16ff#\KL	.
.	.	8ee\J)	.
.	.	16r	.
=110	=110	=110	=110
4r	2.D\	(8g/L	.
.	.	8a/)	.
4B/ 4G/	.	8b'/	.
.	.	8cc'/	.
4B/ 4G/	.	8cc#X'/	.
.	.	8dd'/J	.
=111	=111	=111	=111
*rep	*rep	*	*
4r	2.D\	(16ee\KL	.
.	.	8dd\J)	.
.	.	16r	.
4B/ 4G/	.	(16cc#X\KL	.
.	.	8dd\J)	.
.	.	16r	.
4B/ 4G/	.	(16ee\KL	.
.	.	8dd\J)	.
.	.	16r	.
*Xrep	*Xrep	*	*
=112	=112	=112	=112
4r	2.D\	(8f#/L	<
.	.	8g/)	.
4c/ 4A/	.	8a'/	.
.	.	8b'/	.
4c/ 4A/	.	8cc'/	.
.	.	8cc#X'/J	.
=113	=113	=113	=113
*rep	*rep	*	*
4r	2.D\	(8ee\L	.
.	.	8dd\	.
4c/ 4A/	.	8cc#X\	.
.	.	8dd\	.
4c/ 4A/	.	8ee\	.
.	.	8ff#\J)	[[
*Xrep	*Xrep	*	*
*v	*v	*	*
!!LO:LB:g=original
=114	=114	=114
!	!	!LO:DY:rj
4B\ 4G\	8gg'\L	f
.	(8dd\	.
4r	8cc#X\	.
.	8dd\	.
4c\ 4F#\ 4D\	8bb\	.
.	8aa\J)	.
=115	=115	=115
*rep	*rep	*
4B\ 4G\	8gg'\L	.
.	(8dd\	.
4r	8cc#X\	.
.	8dd\	.
4c\ 4F#\ 4D\	8bb\	.
.	8aa\J)	.
*Xrep	*Xrep	*
=116	=116	=116
4B\ 4G\	4gg\	.
4r	4r	.
4r	4r	.
=117	=117	=117
4D/ 4DD/	4ddd\ 4ff#\ 4dd\	.
4r	4r	.
4r	4r	.
=118	=118	=118
4G/ 4GG/	4bb\ 4gg\ 4dd\	.
4r	4r	.
4r	4r	.
=119	=119	=119
4D/ 4DD/	4ff#\ 4dd\ 4cc\ 4a\	.
4r	4r	.
4r	4r	.
=120	=120	=120
4G/ 4GG/	4gg\ 4dd\ 4b\	.
4r	4r	.
4r	4r	.
==	==	==
*-	*-	*-
!!!system-decoration: [(s1,s2)]
!!!RDF**kern: > = above
!!!RDF**kern: < = below
!!!EED: Leszek Kubiak
!!!EST: 2021-06-18
!!!ENC: Katarzyna Serwa
!!!END: 2021-06-16
